src/lib/packages/icons/src/assets/line/users-group-slash.svg

<svg width="24" height="24" viewBox="0 0 24 24" fill="none" xmlns="http://www.w3.org/2000/svg">
<path d="M18.97 18.35C18.97 20.542 17.755 21.75 15.55 21.75H8.44995C7.84695 21.75 7.34702 21.667 6.92102 21.496C6.53702 21.342 6.35003 20.905 6.50403 20.521C6.65803 20.136 7.09398 19.95 7.47998 20.104C7.72198 20.201 8.04805 20.25 8.45105 20.25H15.551C16.914 20.25 17.4709 19.7 17.4709 18.35C17.4709 17.518 17.226 14.7931 14.067 14.6491C13.653 14.6301 13.3331 14.279 13.3521 13.866C13.3711 13.452 13.741 13.143 14.135 13.151C17.703 13.314 18.97 16.054 18.97 18.35ZM6.30298 18.757L2.53003 22.5301C2.38403 22.6761 2.192 22.75 2 22.75C1.808 22.75 1.61597 22.6771 1.46997 22.5301C1.17697 22.2371 1.17697 21.762 1.46997 21.469L5.04895 17.89C5.20795 15.738 6.52202 13.365 9.77002 13.169L11.256 11.683C9.54298 11.334 8.25 9.81906 8.25 8.00906C8.25 5.93606 9.93701 4.24905 12.01 4.24905C13.82 4.24905 15.335 5.54203 15.684 7.25503L18.634 4.30508C18.374 3.96208 17.962 3.74905 17.51 3.74905C17.143 3.74905 16.807 3.87899 16.564 4.11599C16.269 4.40599 15.7931 4.39907 15.5031 4.10207C15.2131 3.80507 15.22 3.33104 15.517 3.04104C16.041 2.53004 16.749 2.24807 17.51 2.24807C18.368 2.24807 19.154 2.62804 19.694 3.24404L21.47 1.46804C21.763 1.17504 22.238 1.17504 22.531 1.46804C22.824 1.76104 22.824 2.23608 22.531 2.52908L6.30505 18.755C6.30405 18.756 6.30398 18.757 6.30298 18.757ZM12.85 10.09L14.09 8.85C14.197 8.578 14.26 8.29703 14.26 8.01003C14.26 6.76403 13.25 5.75002 12.01 5.75002C10.764 5.75002 9.75 6.76403 9.75 8.01003C9.75 9.25103 10.764 10.26 12.01 10.26C12.297 10.26 12.578 10.197 12.85 10.09ZM18.79 8.68008H18.5699C18.1559 8.68008 17.8199 9.01608 17.8199 9.43008C17.8199 9.84408 18.1559 10.1801 18.5699 10.1801H18.79C21.011 10.1801 21.25 11.907 21.25 12.65C21.25 13.514 20.9409 13.82 20.0699 13.82H19.71C19.296 13.82 18.96 14.156 18.96 14.57C18.96 14.984 19.296 15.32 19.71 15.32H20.0699C21.7729 15.32 22.75 14.347 22.75 12.65C22.75 10.674 21.525 8.68008 18.79 8.68008ZM5.922 8.03506C5.972 8.04506 6.02205 8.05007 6.07104 8.05007C6.42104 8.05007 6.73305 7.80402 6.80505 7.44802C6.88705 7.04202 6.62402 6.64599 6.21802 6.56399C5.55802 6.43099 5.07898 5.84497 5.07898 5.16897C5.07898 4.38597 5.72103 3.74905 6.50903 3.74905C6.86903 3.74905 7.20797 3.88205 7.46497 4.12405C7.76597 4.40905 8.24102 4.39502 8.52502 4.09402C8.81002 3.79302 8.796 3.31808 8.495 3.03408C7.96 2.52808 7.25501 2.24905 6.51001 2.24905C4.89501 2.24905 3.57996 3.55897 3.57996 5.16897C3.57996 6.55597 4.565 7.76106 5.922 8.03506ZM3.93005 15.32H4.28101C4.69501 15.32 5.03101 14.984 5.03101 14.57C5.03101 14.156 4.69501 13.82 4.28101 13.82H3.93005C3.05905 13.82 2.75 13.514 2.75 12.65C2.75 11.907 2.98896 10.1801 5.20996 10.1801H6.19995C6.61395 10.1801 6.94995 9.84408 6.94995 9.43008C6.94995 9.01608 6.61395 8.68008 6.19995 8.68008H5.20996C2.28696 8.68008 1.25 10.819 1.25 12.65C1.25 14.347 2.22705 15.32 3.93005 15.32Z" fill="currentColor"/>
</svg>

<svg xmlns="http://www.w3.org/2000/svg" width="24" height="24" fill="none"><path fill="currentColor" d="M18.97 18.35c0 2.192-1.215 3.4-3.42 3.4h-7.1c-.603 0-1.103-.083-1.529-.254a.75.75 0 0 1 .559-1.392c.242.097.568.146.971.146h7.1c1.363 0 1.92-.55 1.92-1.9 0-.832-.245-3.557-3.404-3.7a.75.75 0 0 1-.715-.784c.02-.414.389-.723.783-.715 3.568.163 4.835 2.903 4.835 5.199Zm-12.667.407L2.53 22.53a.748.748 0 0 1-1.06 0 .75.75 0 0 1 0-1.061l3.579-3.579c.159-2.152 1.473-4.525 4.721-4.721l1.486-1.486A3.759 3.759 0 0 1 8.25 8.009a3.765 3.765 0 0 1 3.76-3.76 3.759 3.759 0 0 1 3.674 3.006l2.95-2.95a1.409 1.409 0 0 0-1.124-.556c-.367 0-.703.13-.946.367a.75.75 0 1 1-1.047-1.075 2.832 2.832 0 0 1 1.993-.793c.858 0 1.644.38 2.184.996l1.776-1.776a.75.75 0 1 1 1.061 1.061L6.305 18.755l-.002.002Zm6.547-8.667 1.24-1.24a2.29 2.29 0 0 0 .17-.84c0-1.246-1.01-2.26-2.25-2.26a2.263 2.263 0 0 0-2.26 2.26 2.257 2.257 0 0 0 2.26 2.25c.287 0 .568-.063.84-.17Zm5.94-1.41h-.22a.75.75 0 0 0 0 1.5h.22c2.221 0 2.46 1.727 2.46 2.47 0 .864-.31 1.17-1.18 1.17h-.36a.75.75 0 0 0 0 1.5h.36c1.703 0 2.68-.973 2.68-2.67 0-1.976-1.225-3.97-3.96-3.97ZM5.922 8.035a.75.75 0 0 0 .296-1.471 1.425 1.425 0 0 1-1.139-1.395c0-.783.642-1.42 1.43-1.42.36 0 .699.133.956.375a.75.75 0 1 0 1.03-1.09A2.875 2.875 0 0 0 6.51 2.25a2.929 2.929 0 0 0-2.93 2.92 2.93 2.93 0 0 0 2.342 2.866ZM3.93 15.32h.351a.75.75 0 0 0 0-1.5h-.35c-.872 0-1.181-.306-1.181-1.17 0-.743.239-2.47 2.46-2.47h.99a.75.75 0 0 0 0-1.5h-.99c-2.923 0-3.96 2.139-3.96 3.97 0 1.697.977 2.67 2.68 2.67Z"/></svg>
